X: 6583
T: Catriona's
R: reel
M: 4/4
K: Gmajor
DEGA AGAB|:c3B AGEG|D3E GDEG|A2 AB AGEG|cdAG AGAB|
c3B AGEG|D3E GDEG|A2 AB AGAB|1 dBAG GAAG:|2 dBAG GBdg||
|:e3d- dBAG|GddG ABAG|GddG A2 GF|GddG ABAG|
e3 d- dBAG|GddG ABAG|GddG AGAB|1 dBAG GBdg:|2 dBAG AGAB||

